packages/tokens/icons/links/sizeSize4.svg

<svg viewBox="0 0 24 24" fill="none" xmlns="http://www.w3.org/2000/svg" width="1em" height="1em"><path d="M10.8283 12.8995V12.8995C11.9998 14.0711 13.8993 14.0711 15.0709 12.8995L18.6064 9.36396C19.778 8.19239 19.778 6.29289 18.6064 5.12132V5.12132C17.4349 3.94975 15.5354 3.94975 14.3638 5.12132L12 7.48511" stroke="currentColor" stroke-linecap="round"/><path d="M12.8995 10.8285V10.8285C11.728 9.65696 9.82846 9.65696 8.65689 10.8285L5.12135 14.3641C3.94978 15.5356 3.94978 17.4351 5.12136 18.6067V18.6067C6.29293 19.7783 8.19242 19.7783 9.364 18.6067L12 15.9707" stroke="currentColor" stroke-linecap="round"/></svg>

<svg xmlns="http://www.w3.org/2000/svg" fill="none" viewBox="0 0 24 24" width="1em" height="1em"><path stroke="currentColor" stroke-linecap="round" d="M10.828 12.9v0a3 3 0 0 0 4.243 0l3.535-3.536a3 3 0 0 0 0-4.243v0a3 3 0 0 0-4.242 0L12 7.485"/><path stroke="currentColor" stroke-linecap="round" d="M12.9 10.829v0a3 3 0 0 0-4.243 0L5.12 14.364a3 3 0 0 0 0 4.243v0a3 3 0 0 0 4.243 0L12 15.97"/></svg>
